public/svg/wallet-icons/ledger.svg

<svg fill="none" height="28" width="28" xmlns="http://www.w3.org/2000/svg"><path d="m0 0h28v28h-28z" fill="#000"/><path clip-rule="evenodd" d="m11.65 4.4h-7.25v4.6h1.1v-3.5l6.15-.04zm.05 5.95v7.25h4.6v-1.1h-3.5l-.04-6.15zm-7.3 13.25h7.25v-1.06l-6.15-.04v-3.5h-1.1zm11.95-19.2h7.25v4.6h-1.1v-3.5l-6.15-.04zm7.25 19.2h-7.25v-1.06l6.15-.04v-3.5h1.1z" fill="#fff" fill-rule="evenodd"/></svg>

<svg xmlns="http://www.w3.org/2000/svg" width="28" height="28" fill="none"><path fill="#000" d="M0 0h28v28H0z"/><path fill="#fff" fill-rule="evenodd" d="M11.65 4.4H4.4V9h1.1V5.5l6.15-.04V4.4Zm.05 5.95v7.25h4.6v-1.1h-3.5l-.04-6.15H11.7ZM4.4 23.6h7.25v-1.06L5.5 22.5V19H4.4v4.6ZM16.35 4.4h7.25V9h-1.1V5.5l-6.15-.04V4.4Zm7.25 19.2h-7.25v-1.06l6.15-.04V19h1.1v4.6Z" clip-rule="evenodd"/></svg>
